X: 1
T: Peat Fire Flame, The
C: Trad
R: Reel
L: 1/8
M: 4/4
K: Emin
r: 32
Z: ABC transcription by Verge Roller
|: D2 | "Em" E3 F G3 F | "D" E2 D2 "Em" B4 | "Am" B2 A2 A2 GA | "D" B2 A2 A2 B2 |
"Em" E3 F G3 F | "D" E2 D2 "Em" B3 A | "Em" G2 E2 "Bm" F2 D2 | "Em" E4 E2 :|
|: F2 | "G" G3 A B2 gf | "G" e2 d2 B4 | "Am" B2 A2 A2 GA | "D" B2 A2 A2 B2 |
"G" G3 A B2 gf | "G" e2 d2 B3 A | "Em" G2 E2 "Bm" F2 D2 | "Em" E4 E2 :|
